X: 1
T: Some Distance From Prussia
P: piffero primo a0768
O: safd 101
F: http://ancients.sudburymuster.org/mus/med/pdf/wupprussC0.pdf
Z: 2020 John Chambers <jc:trillian.mit.edu>
M: 2/4
L: 1/16
K: Bm
fe |\
d2BB B^ABc | dcde f2ed | c2AA A^GAB | cBcd e2fe |\
d2BB B^ABc | dcde f2ed | B2f2 fedc |
B2f2 B2 :: F2 |\
B3c dcde | f2f2 ~F4 | f2f2 ~F4 | TA2F2 TA2F2 |\
B3c dcde | f2f2 ~F4 | B2f2 fedc | B2f2 b2 :|
